X:4
T:GOD PLACE : GOOD PRICELESS
M:4/4
L:1/8
Q:1/4=150
K:Em
|: E,2 B,E G2 FE | D2 A,D F2 ED | C,2 G,C E2 DC | B,,2 F,B, D2 CB, :|
| E B e B G E B, E | D A d A F D A, D | C G c G E C G, C | B, F B F D B, F, B, |
